!!!OTL: LUSTIG ISTS MATROSENLEBN
!!!ARE: Europa, Mitteleuropa, Deutschland, Hessen; Lahn - Gegend
!!!SCT: E1505
!!!YEM: Copyright 1995, estate of Helmut Schaffrath.
**kern
*ICvox
*Ivox
*M4/4
*k[f#c#]
*D:
=1
{4.A
8F#
8D
8F#
8A
8B
=2
4A
8.A
16A
4A
4r}
=3
{4.e
8d
8c#
8B
8A
8G
=4
4F#
8.A
16A
4d
4r}
=5
{4.B
8c#
8d
8d
8c#
8B
=6
4A
8.F#
16G
4A
4r}
=7
{4.B
8c#
8d
8d
8c#
8B
=8
4A
8.F#
16G
4A
4r}
=9
{4.E
8F#
8G
8B
8A
8G
=10
4F#
8.A
16A
4d}
{8.f#
16f#
=11
4e
4r
2a
=12
2d
2r}
==
!!!AGN: Staende -, Seemanns - Lied
!!!ONB: ESAC (Essen Associative Code) Database: ERK3
!!!AMT: simple quadruple
!!!AIN: vox
!!!EED: Helmut Schaffrath
!!!EEV: 1.0
*-
